X:502
T: Still, ihr Winde (5-98), S. 156
N: P0772
O: Lothringen
S: MERKELBACH-PINCK, Angelika: Verklingende Weisen, Bd 5, Kassel 1962]
R: geistliches Lied]
M: 3/4
L: 1/8
K: G
 | G2B2d2 | e2d2z2 | G2A2B2 | c2B2z2 |
A2F2A2 | A2^c2d2 | A2d2^c2 | d4z2 |
G2B2d2 | e2d2z2 | G2A2B2 | c2B2z2 |
A2F2A2 | A2^c2d2 | A2d2^c2 | d4z2 |
dcB2A2 | G4G2 | c4c2 | c2B2z2 |
dcB2A2 | G4G2 | c4c2 | c2B2z2 |
G4D2 | A4D2 | B4G2 | c4z2 | Bcd2F2 | G4z2

@@@ Tune index: 8052
